assets/stickers/emoticons/stickers/imgly_sticker_emoticons_hippie.svg

<svg height="62" viewBox="0 0 62 62" width="62" xmlns="http://www.w3.org/2000/svg"><g fill="none"><g transform="translate(0 3)"><path d="m61.2 34.8c0 13-11.9 23.5-30.3 23.5s-30.3-10.5-30.3-23.5 11.9-32.5 30.3-32.5 30.3 19.5 30.3 32.5z" fill="#f7910b"/><path d="m61.2 34.8c0 13-11.9 19.5-30.3 19.5s-30.3-6.5-30.3-19.5 11.9-34.5 30.3-34.5 30.3 21.5 30.3 34.5z" fill="#f7910b"/><path d="m30.9.3c18.4 0 30.3 21.5 30.3 34.5s-11.9 19.5-30.3 19.5" fill="#f9a908"/><path d="m61.2 34.8c0 13-11.9 19.5-30.3 19.5s-30.3-6.5-30.3-19.5 11.9-32.5 30.3-32.5 30.3 19.5 30.3 32.5z" fill="#f9a908"/><path d="m.5 34.8c0-13 11.9-32.5 30.3-32.5" fill="#f9c55d"/><path d="m30.9 2.3c18.4 0 30.3 19.5 30.3 32.5s-11.9 23.5-30.3 23.5" fill="#f7910b"/><path d="m30.9 2.3c18.4 0 30.3 19.5 30.3 32.5" fill="#ea7103"/><g transform="translate(18 11)"><path d="m6.8 1.5c.2.8-1.3.8-3 1.3s-3 1.3-3.3.4c-.2-.8 1-1.9 2.7-2.4 1.7-.4 3.3-.1 3.6.7z" fill="#19bca4"/><path d="m6.8 1.5c.2.8-1.3.8-3 1.3s-3 1.3-3.3.4" fill="#109da0"/></g><g transform="translate(37 8)"><path d="m.1 1.5c-.3.8 1.2 1 2.8 1.7 1.7.7 2.8 1.7 3.2.9.3-.8-.7-2-2.4-2.7-1.7-.8-3.3-.7-3.6.1z" fill="#19bca4"/><path d="m.1 1.5c-.3.8 1.2 1 2.8 1.7 1.7.7 2.8 1.7 3.2.9" fill="#109da0"/></g><circle cx="9.2" cy="31.8" fill="#f7910b" r="1"/><circle cx="4.7" cy="33.8" fill="#f7910b" r="1.1"/><circle cx="7.7" cy="29.8" fill="#f7910b" r="1"/><circle cx="12.3" cy="31.6" fill="#f7910b" r="1"/><g fill="#f9a908"><circle cx="51.5" cy="32.1" r="1"/><circle cx="54" cy="33.5" r="1"/><circle cx="48.6" cy="24.7" r="1"/><circle cx="48.1" cy="36.3" r="1.3"/><circle cx="55.3" cy="36.4" r="1"/></g><circle cx="8.2" cy="35.8" fill="#f7910b" r="1"/><circle cx="9" cy="27.4" fill="#f7910b" r="1"/><circle cx="3.7" cy="13.6" fill="#f9a908" r="1.1"/><circle cx="6.9" cy="10.1" fill="#f9a908" r="1"/><circle cx="58.1" cy="16" fill="#f9a908" r="1"/><g transform="translate(14 19)"><path d="m8.7 6.3c-.4-.1-.8-.3-1.1-.7-1.1-1.6-3.4-2-5-.9-.8.5-1.8.3-2.3-.4-.5-.8-.3-1.8.4-2.3 3.1-2.2 7.4-1.4 9.6 1.8.5.7.3 1.8-.4 2.3-.3.2-.8.2-1.2.2z" fill="#1e4784"/><path d="m10.4 3.7c.5.7.3 1.8-.4 2.3-.4.3-.8.3-1.2.3-.4-.1-.8-.3-1.1-.7-1.1-1.6-3.4-2-5-.9-.8.5-1.8.3-2.3-.4-.5-.8-.3-1.8.4-2.3" fill="#02243e"/></g><g transform="translate(37 18)"><circle cx="3.6" cy="5" fill="#d87703" r="3.5"/><circle cx="3.6" cy="4" fill="#1e4784" r="3.5"/><path d="m3.6.5c1.9 0 3.5 1.6 3.5 3.5s-1.6 3.5-3.5 3.5" fill="#00233f"/></g><circle cx="57.3" cy="13.1" fill="#f9a908" r="1"/><circle cx="59.8" cy="13.6" fill="#f9a908" r="1"/><circle cx="4.9" cy="16.6" fill="#f9a908" r="1"/><g transform="translate(11 25)"><path d="m15.7 3.1c0 1.2-3.5.7-7.8.7s-7.8.6-7.8-.7 3.5-2.2 7.8-2.2 7.8 1 7.8 2.2z" fill="#f9c55d"/><path d="m39.6 3.1c0 1.2-3.5.7-7.8.7s-7.8.6-7.8-.7 3.5-2.2 7.8-2.2c4.4 0 7.8 1 7.8 2.2z" fill="#f9a908"/></g><g transform="translate(18 27)"><path d="m16.8 3.8c0 .8-1.7 1.5-3.9 1.5s-3.9-.7-3.9-1.5" fill="#f9c55d"/><path d="m18.3 5.7c0 1.9-2.4 5.4-5.4 5.4s-5.4-3.5-5.4-5.4" fill="#f7910b"/><g fill="#02243e"><g><path d="m1.8 4.5c-.6 0-1.1-.5-1.1-1.1s.5-1.1 1.1-1.1c.5 0 .9-.4.9-.9 0-.6.5-1.1 1.1-1.1s1.1.5 1.1 1.1c0 1.7-1.4 3.1-3.1 3.1z"/><path d="m23.9 4.5c-1.7 0-3.1-1.4-3.1-3.1 0-.6.5-1.1 1.1-1.1s1.1.5 1.1 1.1c0 .5.4.9.9.9.6 0 1.1.5 1.1 1.1s-.5 1.1-1.1 1.1z"/></g><path d="m12.9 8.1c-3.8 0-7.6-1.4-10.4-4.3-.4-.4-.4-1.1 0-1.6.4-.4 1.1-.4 1.6 0 4.9 4.9 12.9 4.9 17.8 0 .4-.4 1.1-.4 1.6 0 .4.4.4 1.1 0 1.6-3.1 2.9-6.9 4.3-10.6 4.3z"/></g></g></g><g transform="translate(0 38)"><path d="m.5.3c.3 12.7 12.1 23 30.3 23s30-10.3 30.3-23z" fill="#3cc676"/><path d="m30.9 23.3c18.2 0 30-10.3 30.3-23h-60.7" fill="#12af6b"/></g><g transform="translate(16 44)"><path d="m29.4 13.7c-.8-7.4-7-13.1-14.6-13.1s-13.8 5.7-14.6 13.1z" fill="#d63834"/><path d="m.3 13.7h29.1c-.8-7.4-7-13.1-14.6-13.1" fill="#bc1e1e"/><path d="m24.6 13.7c-.6-4.9-4.7-8.7-9.7-8.7s-9.2 3.8-9.7 8.7z" fill="#f7df77"/><path d="m5.2 13.7h19.4c-.6-4.9-4.7-8.7-9.7-8.7" fill="#f2c549"/><path d="m19.9 13.7c-.3-2.6-2.4-4.6-5.1-4.6-2.6 0-4.8 2-5.1 4.6z" fill="#3cc676"/><path d="m9.8 13.7h10.2c-.3-2.6-2.4-4.6-5.1-4.6" fill="#12af6b"/></g><circle cx="11.4" cy="48.5" fill="#d63834" r="1"/><circle cx="18" cy="45.5" fill="#d63834" r="1"/><circle cx="49.8" cy="46.7" fill="#d63834" r="2.2"/><circle cx="55.9" cy="42.6" fill="#d63834" r="1"/><circle cx="57" cy="47" fill="#d63834" r="1"/><circle cx="16.8" cy="41.6" fill="#f7df77" r="1"/><circle cx="23" cy="40.9" fill="#f7df77" r="1"/><circle cx="18.3" cy="45.2" fill="#f7df77" r="1"/><circle cx="40" cy="44" fill="#f7df77" r="1.4"/><circle cx="45.4" cy="41.6" fill="#f7df77" r="1"/><circle cx="51.3" cy="41.8" fill="#f7df77" r="1"/><circle cx="34.3" cy="41.6" fill="#f7df77" r="1"/><g fill="#98f4f1"><circle cx="48.9" cy="53.5" r="1"/><circle cx="13.3" cy="43.8" r="1"/><circle cx="14.5" cy="52.5" r="1.1"/><circle cx="6.4" cy="47.1" r="1"/><circle cx="44.8" cy="48" r="1"/><circle cx="53.2" cy="44.2" r="1"/><circle cx="53.5" cy="50.5" r="1"/><circle cx="4.4" cy="40.6" r="1"/></g><circle cx="9.5" cy="43.5" fill="#d63834" r="1.6"/><path d="m36.6 38.2c0 3.2-2.6 5.8-5.8 5.8s-5.8-2.6-5.8-5.8" fill="#f7910b"/><path d="m50.3 10.5c0 .6-.4 1-1 1h-36.9c-.6 0-1-.4-1-1 0-.6.4-1 1-1h36.8c.6 0 1.1.4 1.1 1z" fill="#12af6b"/><path d="m49.3 9.5c.6 0 1 .4 1 1 0 .6-.4 1-1 1h-36.9c-.6 0-1-.4-1-1" fill="#3cc676"/><g transform="translate(49)"><ellipse cx="2.7" cy="5.4" fill="#d63834" rx="2.7" ry="4.7"/><path d="m2.7.7c1.5 0 2.7 2.1 2.7 4.7s-1.2 4.6-2.7 4.6" fill="#bc1e1e"/></g><g transform="translate(49 10)"><ellipse cx="2.7" cy="5.5" fill="#d63834" rx="2.7" ry="4.7"/><path d="m2.7.9c1.5 0 2.7 2.1 2.7 4.7s-1.2 4.7-2.7 4.7" fill="#bc1e1e"/></g><g transform="translate(50 1)"><ellipse cx="5.27184" cy="5.88172" fill="#d63834" rx="2.699974" ry="4.699955" transform="matrix(.70710678 .70710678 -.70710678 .70710678 5.70309 -2.005038)"/><path d="m8.6 2.6c1.1 1.1.4 3.4-1.4 5.2s-4.2 2.4-5.2 1.4" fill="#bc1e1e"/></g><g transform="translate(42 8)"><ellipse cx="6.13671" cy="5.99821" fill="#d63834" rx="2.699974" ry="4.699955" transform="matrix(.70710678 .70710678 -.70710678 .70710678 6.038776 -2.582474)"/><path d="m9.4 2.7c1.1 1.1.4 3.4-1.4 5.2s-4.2 2.5-5.2 1.4" fill="#bc1e1e"/></g><g transform="translate(52 7)"><ellipse cx="4.8" cy="3.5" fill="#d63834" rx="4.7" ry="2.7"/><path d="m9.5 3.5c0 1.5-2.1 2.7-4.7 2.7s-4.7-1.2-4.7-2.7" fill="#bc1e1e"/></g><g transform="translate(41 7)"><ellipse cx="5.6" cy="3.5" fill="#d63834" rx="4.7" ry="2.7"/><path d="m10.3 3.5c0 1.5-2.1 2.7-4.7 2.7s-4.7-1.2-4.7-2.7" fill="#bc1e1e"/></g><g transform="translate(51 10)"><path d="m2.4 5.9c-1.8-1.8-2.5-4.2-1.4-5.2 1.1-1.1 3.4-.4 5.2 1.4s2.5 4.2 1.4 5.2c-1 1.1-3.4.5-5.2-1.4z" fill="#d63834"/><path d="m7.6 7.3c-1 1.1-3.4.4-5.2-1.4s-2.5-4.2-1.4-5.2" fill="#bc1e1e"/></g><g transform="translate(42 1)"><ellipse cx="6.10534" cy="5.81392" fill="#d63834" rx="2.699974" ry="4.699955" transform="matrix(-.70690675 .70730676 -.70730676 -.70690675 14.533471 5.605471)"/><path d="m9.4 9.2c-1.1 1.1-3.4.4-5.2-1.4s-2.5-4.2-1.4-5.2" fill="#bc1e1e"/></g><g transform="translate(46 4)"><circle cx="5.7" cy="6.5" fill="#f9a908" r="5.6"/><path d="m9.6 2.5c2.2 2.2 2.2 5.7 0 7.9s-5.7 2.2-7.9 0" fill="#f7910b"/><path d="m5.9 2.6c.5.6 0 1.8-1 2.5-1 .8-2.2.9-2.7.3s0-1.8 1-2.5c1-.8 2.2-1 2.7-.3z" fill="#f9c55d"/></g></g></svg>

<?xml version="1.0" encoding="UTF-8"?>
<svg width="62px" height="62px" viewBox="0 0 62 62" version="1.1" xmlns="http://www.w3.org/2000/svg" xmlns:xlink="http://www.w3.org/1999/xlink">
    <!-- Generator: Sketch 43.1 (39012) - http://www.bohemiancoding.com/sketch -->
    <title>imgly_sticker_emoticons_hippie</title>
    <desc>Created with Sketch.</desc>
    <defs></defs>
    <g id="Page-1" stroke="none" stroke-width="1" fill="none" fill-rule="evenodd">
        <g id="hippie" fill-rule="nonzero">
            <g id="Group" transform="translate(0.000000, 3.000000)">
                <path d="M61.2,34.8 C61.2,47.8 49.3,58.3 30.9,58.3 C12.5,58.3 0.6,47.8 0.6,34.8 C0.6,21.8 12.5,2.3 30.9,2.3 C49.3,2.3 61.2,21.8 61.2,34.8 Z" id="Shape" fill="#F7910B"></path>
                <path d="M61.2,34.8 C61.2,47.8 49.3,54.3 30.9,54.3 C12.5,54.3 0.6,47.8 0.6,34.8 C0.6,21.8 12.5,0.3 30.9,0.3 C49.3,0.3 61.2,21.8 61.2,34.8 Z" id="Shape" fill="#F7910B"></path>
                <path d="M30.9,0.3 C49.3,0.3 61.2,21.8 61.2,34.8 C61.2,47.8 49.3,54.3 30.9,54.3" id="Shape" fill="#F9A908"></path>
                <path d="M61.2,34.8 C61.2,47.8 49.3,54.3 30.9,54.3 C12.5,54.3 0.6,47.8 0.6,34.8 C0.6,21.8 12.5,2.3 30.9,2.3 C49.3,2.3 61.2,21.8 61.2,34.8 Z" id="Shape" fill="#F9A908"></path>
                <path d="M0.5,34.8 C0.5,21.8 12.4,2.3 30.8,2.3" id="Shape" fill="#F9C55D"></path>
                <path d="M30.9,2.3 C49.3,2.3 61.2,21.8 61.2,34.8 C61.2,47.8 49.3,58.3 30.9,58.3" id="Shape" fill="#F7910B"></path>
                <path d="M30.9,2.3 C49.3,2.3 61.2,21.8 61.2,34.8" id="Shape" fill="#EA7103"></path>
                <g transform="translate(18.000000, 8.000000)" id="Shape">
                    <g transform="translate(0.000000, 3.000000)">
                        <path d="M6.8,1.5 C7,2.3 5.5,2.3 3.8,2.8 C2.1,3.3 0.8,4.1 0.5,3.2 C0.3,2.4 1.5,1.3 3.2,0.8 C4.9,0.4 6.5,0.7 6.8,1.5 Z" fill="#19BCA4"></path>
                        <path d="M6.8,1.5 C7,2.3 5.5,2.3 3.8,2.8 C2.1,3.3 0.8,4.1 0.5,3.2" fill="#109DA0"></path>
                    </g>
                    <g transform="translate(19.000000, 0.000000)">
                        <path d="M0.1,1.5 C-0.2,2.3 1.3,2.5 2.9,3.2 C4.6,3.9 5.7,4.9 6.1,4.1 C6.4,3.3 5.4,2.1 3.7,1.4 C2,0.6 0.4,0.7 0.1,1.5 Z" fill="#19BCA4"></path>
                        <path d="M0.1,1.5 C-0.2,2.3 1.3,2.5 2.9,3.2 C4.6,3.9 5.7,4.9 6.1,4.1" fill="#109DA0"></path>
                    </g>
                </g>
                <circle id="Oval" fill="#F7910B" cx="9.2" cy="31.8" r="1"></circle>
                <circle id="Oval" fill="#F7910B" cx="4.7" cy="33.8" r="1.1"></circle>
                <circle id="Oval" fill="#F7910B" cx="7.7" cy="29.8" r="1"></circle>
                <circle id="Oval" fill="#F7910B" cx="12.3" cy="31.6" r="1"></circle>
                <circle id="Oval" fill="#F9A908" cx="51.5" cy="32.1" r="1"></circle>
                <circle id="Oval" fill="#F9A908" cx="54" cy="33.5" r="1"></circle>
                <circle id="Oval" fill="#F9A908" cx="48.6" cy="24.7" r="1"></circle>
                <circle id="Oval" fill="#F9A908" cx="48.1" cy="36.3" r="1.3"></circle>
                <circle id="Oval" fill="#F9A908" cx="55.3" cy="36.4" r="1"></circle>
                <circle id="Oval" fill="#F7910B" cx="8.2" cy="35.8" r="1"></circle>
                <circle id="Oval" fill="#F7910B" cx="9" cy="27.4" r="1"></circle>
                <circle id="Oval" fill="#F9A908" cx="3.7" cy="13.6" r="1.1"></circle>
                <circle id="Oval" fill="#F9A908" cx="6.9" cy="10.1" r="1"></circle>
                <circle id="Oval" fill="#F9A908" cx="58.1" cy="16" r="1"></circle>
                <g transform="translate(14.000000, 18.000000)">
                    <g transform="translate(0.000000, 1.000000)" id="Shape">
                        <path d="M8.7,6.3 C8.3,6.2 7.9,6 7.6,5.6 C6.5,4 4.2,3.6 2.6,4.7 C1.8,5.2 0.8,5 0.3,4.3 C-0.2,3.5 -1.89084859e-15,2.5 0.7,2 C3.8,-0.2 8.1,0.6 10.3,3.8 C10.8,4.5 10.6,5.6 9.9,6.1 C9.6,6.3 9.1,6.3 8.7,6.3 Z" fill="#1E4784"></path>
                        <path d="M10.4,3.7 C10.9,4.4 10.7,5.5 10,6 C9.6,6.3 9.2,6.3 8.8,6.3 C8.4,6.2 8,6 7.7,5.6 C6.6,4 4.3,3.6 2.7,4.7 C1.9,5.2 0.9,5 0.4,4.3 C-0.1,3.5 0.1,2.5 0.8,2" fill="#02243E"></path>
                    </g>
                    <g transform="translate(23.000000, 0.000000)">
                        <circle id="Oval" fill="#D87703" cx="3.6" cy="5" r="3.5"></circle>
                        <circle id="Oval" fill="#1E4784" cx="3.6" cy="4" r="3.5"></circle>
                        <path d="M3.6,0.5 C5.5,0.5 7.1,2.1 7.1,4 C7.1,5.9 5.5,7.5 3.6,7.5" id="Shape" fill="#00233F"></path>
                    </g>
                </g>
                <circle id="Oval" fill="#F9A908" cx="57.3" cy="13.1" r="1"></circle>
                <circle id="Oval" fill="#F9A908" cx="59.8" cy="13.6" r="1"></circle>
                <circle id="Oval" fill="#F9A908" cx="4.9" cy="16.6" r="1"></circle>
                <g transform="translate(11.000000, 25.000000)" id="Shape">
                    <path d="M15.7,3.1 C15.7,4.3 12.2,3.8 7.9,3.8 C3.6,3.8 0.1,4.4 0.1,3.1 C0.1,1.8 3.6,0.9 7.9,0.9 C12.2,0.9 15.7,1.9 15.7,3.1 Z" fill="#F9C55D"></path>
                    <path d="M39.6,3.1 C39.6,4.3 36.1,3.8 31.8,3.8 C27.5,3.8 24,4.4 24,3.1 C24,1.8 27.5,0.9 31.8,0.9 C36.2,0.9 39.6,1.9 39.6,3.1 Z" fill="#F9A908"></path>
                </g>
                <g transform="translate(18.000000, 27.000000)" id="Shape">
                    <path d="M16.8,3.8 C16.8,4.6 15.1,5.3 12.9,5.3 C10.7,5.3 9,4.6 9,3.8" fill="#F9C55D"></path>
                    <g>
                        <path d="M18.3,5.7 C18.3,7.6 15.9,11.1 12.9,11.1 C9.9,11.1 7.5,7.6 7.5,5.7" fill="#F7910B"></path>
                        <g fill="#02243E">
                            <path d="M1.8,4.5 C1.2,4.5 0.7,4 0.7,3.4 C0.7,2.8 1.2,2.3 1.8,2.3 C2.3,2.3 2.7,1.9 2.7,1.4 C2.7,0.8 3.2,0.3 3.8,0.3 C4.4,0.3 4.9,0.8 4.9,1.4 C4.9,3.1 3.5,4.5 1.8,4.5 Z"></path>
                            <path d="M23.9,4.5 C22.2,4.5 20.8,3.1 20.8,1.4 C20.8,0.8 21.3,0.3 21.9,0.3 C22.5,0.3 23,0.8 23,1.4 C23,1.9 23.4,2.3 23.9,2.3 C24.5,2.3 25,2.8 25,3.4 C25,4 24.5,4.5 23.9,4.5 Z"></path>
                        </g>
                        <path d="M12.9,8.1 C9.1,8.1 5.3,6.7 2.5,3.8 C2.1,3.4 2.1,2.7 2.5,2.2 C2.9,1.8 3.6,1.8 4.1,2.2 C9,7.1 17,7.1 21.9,2.2 C22.3,1.8 23,1.8 23.5,2.2 C23.9,2.6 23.9,3.3 23.5,3.8 C20.4,6.7 16.6,8.1 12.9,8.1 Z" fill="#02243E"></path>
                    </g>
                </g>
            </g>
            <g id="Group" transform="translate(0.000000, 38.000000)">
                <path d="M0.5,0.3 C0.8,13 12.6,23.3 30.8,23.3 C49,23.3 60.8,13 61.1,0.3 L0.5,0.3 Z" id="Shape" fill="#3CC676"></path>
                <path d="M30.9,23.3 C49.1,23.3 60.9,13 61.2,0.3 L0.5,0.3" id="Shape" fill="#12AF6B"></path>
            </g>
            <g id="Group" transform="translate(16.000000, 44.000000)">
                <path d="M29.4,13.7 C28.6,6.3 22.4,0.6 14.8,0.6 C7.2,0.6 1,6.3 0.2,13.7 L29.4,13.7 Z" id="Shape" fill="#D63834"></path>
                <path d="M0.3,13.7 L29.4,13.7 C28.6,6.3 22.4,0.6 14.8,0.6" id="Shape" fill="#BC1E1E"></path>
                <path d="M24.6,13.7 C24,8.8 19.9,5 14.9,5 C9.9,5 5.7,8.8 5.2,13.7 L24.6,13.7 Z" id="Shape" fill="#F7DF77"></path>
                <path d="M5.2,13.7 L24.6,13.7 C24,8.8 19.9,5 14.9,5" id="Shape" fill="#F2C549"></path>
                <path d="M19.9,13.7 C19.6,11.1 17.5,9.1 14.8,9.1 C12.2,9.1 10,11.1 9.7,13.7 L19.9,13.7 Z" id="Shape" fill="#3CC676"></path>
                <path d="M9.8,13.7 L20,13.7 C19.7,11.1 17.6,9.1 14.9,9.1" id="Shape" fill="#12AF6B"></path>
            </g>
            <circle id="Oval" fill="#D63834" cx="11.4" cy="48.5" r="1"></circle>
            <circle id="Oval" fill="#D63834" cx="18" cy="45.5" r="1"></circle>
            <circle id="Oval" fill="#D63834" cx="49.8" cy="46.7" r="2.2"></circle>
            <circle id="Oval" fill="#D63834" cx="55.9" cy="42.6" r="1"></circle>
            <circle id="Oval" fill="#D63834" cx="57" cy="47" r="1"></circle>
            <circle id="Oval" fill="#F7DF77" cx="16.8" cy="41.6" r="1"></circle>
            <circle id="Oval" fill="#F7DF77" cx="23" cy="40.9" r="1"></circle>
            <circle id="Oval" fill="#F7DF77" cx="18.3" cy="45.2" r="1"></circle>
            <circle id="Oval" fill="#F7DF77" cx="40" cy="44" r="1.4"></circle>
            <circle id="Oval" fill="#F7DF77" cx="45.4" cy="41.6" r="1"></circle>
            <circle id="Oval" fill="#F7DF77" cx="51.3" cy="41.8" r="1"></circle>
            <circle id="Oval" fill="#F7DF77" cx="34.3" cy="41.6" r="1"></circle>
            <circle id="Oval" fill="#98F4F1" cx="48.9" cy="53.5" r="1"></circle>
            <circle id="Oval" fill="#98F4F1" cx="13.3" cy="43.8" r="1"></circle>
            <circle id="Oval" fill="#98F4F1" cx="14.5" cy="52.5" r="1.1"></circle>
            <circle id="Oval" fill="#98F4F1" cx="6.4" cy="47.1" r="1"></circle>
            <circle id="Oval" fill="#98F4F1" cx="44.8" cy="48" r="1"></circle>
            <circle id="Oval" fill="#98F4F1" cx="53.2" cy="44.2" r="1"></circle>
            <circle id="Oval" fill="#98F4F1" cx="53.5" cy="50.5" r="1"></circle>
            <circle id="Oval" fill="#98F4F1" cx="4.4" cy="40.6" r="1"></circle>
            <circle id="Oval" fill="#D63834" cx="9.5" cy="43.5" r="1.6"></circle>
            <path d="M36.6,38.2 C36.6,41.4 34,44 30.8,44 C27.6,44 25,41.4 25,38.2" id="Shape" fill="#F7910B"></path>
            <path d="M50.3,10.5 C50.3,11.1 49.9,11.5 49.3,11.5 L12.4,11.5 C11.8,11.5 11.4,11.1 11.4,10.5 L11.4,10.5 C11.4,9.9 11.8,9.5 12.4,9.5 L49.2,9.5 C49.8,9.5 50.3,9.9 50.3,10.5 L50.3,10.5 Z" id="Shape" fill="#12AF6B"></path>
            <path d="M49.3,9.5 C49.9,9.5 50.3,9.9 50.3,10.5 L50.3,10.5 C50.3,11.1 49.9,11.5 49.3,11.5 L12.4,11.5 C11.8,11.5 11.4,11.1 11.4,10.5 L11.4,10.5" id="Shape" fill="#3CC676"></path>
            <g id="Group" transform="translate(41.000000, 0.000000)">
                <g transform="translate(8.000000, 0.000000)">
                    <g>
                        <ellipse id="Oval" fill="#D63834" cx="2.7" cy="5.4" rx="2.7" ry="4.7"></ellipse>
                        <path d="M2.7,0.7 C4.2,0.7 5.4,2.8 5.4,5.4 C5.4,8 4.2,10 2.7,10" id="Shape" fill="#BC1E1E"></path>
                    </g>
                    <g transform="translate(0.000000, 10.000000)">
                        <ellipse id="Oval" fill="#D63834" cx="2.7" cy="5.5" rx="2.7" ry="4.7"></ellipse>
                        <path d="M2.7,0.9 C4.2,0.9 5.4,3 5.4,5.6 C5.4,8.2 4.2,10.3 2.7,10.3" id="Shape" fill="#BC1E1E"></path>
                    </g>
                </g>
                <g transform="translate(1.000000, 1.000000)">
                    <g transform="translate(8.000000, 0.000000)">
                        <ellipse id="Oval" fill="#D63834" transform="translate(5.271840, 5.881720) rotate(45.000000) translate(-5.271840, -5.881720) " cx="5.27184" cy="5.88172" rx="2.69997411" ry="4.69995493"></ellipse>
                        <path d="M8.6,2.6 C9.7,3.7 9,6 7.2,7.8 C5.4,9.6 3,10.2 2,9.2" id="Shape" fill="#BC1E1E"></path>
                    </g>
                    <g transform="translate(0.000000, 7.000000)">
                        <ellipse id="Oval" fill="#D63834" transform="translate(6.136710, 5.998210) rotate(45.000000) translate(-6.136710, -5.998210) " cx="6.13671" cy="5.99821" rx="2.69997411" ry="4.69995493"></ellipse>
                        <path d="M9.4,2.7 C10.5,3.8 9.8,6.1 8,7.9 C6.2,9.7 3.8,10.4 2.8,9.3" id="Shape" fill="#BC1E1E"></path>
                    </g>
                </g>
                <g transform="translate(0.000000, 7.000000)">
                    <g transform="translate(11.000000, 0.000000)">
                        <ellipse id="Oval" fill="#D63834" cx="4.8" cy="3.5" rx="4.7" ry="2.7"></ellipse>
                        <path d="M9.5,3.5 C9.5,5 7.4,6.2 4.8,6.2 C2.2,6.2 0.1,5 0.1,3.5" id="Shape" fill="#BC1E1E"></path>
                    </g>
                    <g>
                        <ellipse id="Oval" fill="#D63834" cx="5.6" cy="3.5" rx="4.7" ry="2.7"></ellipse>
                        <path d="M10.3,3.5 C10.3,5 8.2,6.2 5.6,6.2 C3,6.2 0.9,5 0.9,3.5" id="Shape" fill="#BC1E1E"></path>
                    </g>
                </g>
                <g transform="translate(1.000000, 1.000000)">
                    <g transform="translate(9.000000, 9.000000)" id="Shape">
                        <path d="M2.4,5.9 C0.6,4.1 -0.1,1.7 1,0.7 C2.1,-0.4 4.4,0.3 6.2,2.1 C8,3.9 8.7,6.3 7.6,7.3 C6.6,8.4 4.2,7.8 2.4,5.9 Z" fill="#D63834"></path>
                        <path d="M7.6,7.3 C6.6,8.4 4.2,7.7 2.4,5.9 C0.6,4.1 -0.1,1.7 1,0.7" fill="#BC1E1E"></path>
                    </g>
                    <g>
                        <ellipse id="Oval" fill="#D63834" transform="translate(6.105340, 5.813920) rotate(134.983794) translate(-6.105340, -5.813920) " cx="6.10534" cy="5.81392" rx="2.69997421" ry="4.69995511"></ellipse>
                        <path d="M9.4,9.2 C8.3,10.3 6,9.6 4.2,7.8 C2.4,6 1.7,3.6 2.8,2.6" id="Shape" fill="#BC1E1E"></path>
                    </g>
                </g>
                <g transform="translate(5.000000, 4.000000)">
                    <circle id="Oval" fill="#F9A908" cx="5.7" cy="6.5" r="5.6"></circle>
                    <path d="M9.6,2.5 C11.8,4.7 11.8,8.2 9.6,10.4 C7.4,12.6 3.9,12.6 1.7,10.4" id="Shape" fill="#F7910B"></path>
                    <path d="M5.9,2.6 C6.4,3.2 5.9,4.4 4.9,5.1 C3.9,5.9 2.7,6 2.2,5.4 C1.7,4.8 2.2,3.6 3.2,2.9 C4.2,2.1 5.4,1.9 5.9,2.6 Z" id="Shape" fill="#F9C55D"></path>
                </g>
            </g>
        </g>
    </g>
</svg>
